icons/laptop-code.svg

<svg width="24" height="24" viewBox="0 0 24 24" fill="none" xmlns="http://www.w3.org/2000/svg">
<path fill-rule="evenodd" clip-rule="evenodd" d="M4.34998 6.89999C4.34998 5.71421 5.31419 4.75 6.49998 4.75H17.5C18.6858 4.75 19.65 5.71421 19.65 6.89999V16.25H4.34998V6.89999ZM2.84998 16.3509V6.89999C2.84998 4.88578 4.48578 3.25 6.49998 3.25H17.5C19.5142 3.25 21.15 4.88578 21.15 6.89999V16.3509C22.0619 16.6392 22.75 17.5104 22.75 18.5C22.75 19.7142 21.7142 20.75 20.5 20.75H3.5C2.28579 20.75 1.25 19.7142 1.25 18.5C1.25 17.5104 1.93805 16.6393 2.84998 16.3509ZM3.5 17.75C3.11421 17.75 2.75 18.1142 2.75 18.5C2.75 18.8858 3.11421 19.25 3.5 19.25H20.5C20.8858 19.25 21.25 18.8858 21.25 18.5C21.25 18.1142 20.8858 17.75 20.5 17.75H3.5ZM13.2697 8.46967C13.5626 8.17678 14.0374 8.17678 14.3303 8.46967L15.7303 9.86966C16.0008 10.1402 16.175 10.4993 16.175 10.9C16.175 11.3007 16.0008 11.6598 15.7303 11.9303L14.3303 13.3303C14.0374 13.6232 13.5626 13.6232 13.2697 13.3303C12.9768 13.0374 12.9768 12.5626 13.2697 12.2697L14.6393 10.9L13.2697 9.53033C12.9768 9.23744 12.9768 8.76256 13.2697 8.46967ZM10.6303 9.6303C10.9232 9.33741 10.9232 8.86253 10.6303 8.56964C10.3374 8.27675 9.86253 8.27675 9.56964 8.56965L8.16965 9.96965L8.16964 9.96966C7.89913 10.2402 7.72498 10.5993 7.72498 11C7.72498 11.4007 7.89913 11.7598 8.16965 12.0303L9.56964 13.4303C9.86253 13.7232 10.3374 13.7232 10.6303 13.4303C10.9232 13.1374 10.9232 12.6625 10.6303 12.3696L9.26064 11L10.6303 9.6303Z" fill="black"/>
</svg>

<svg xmlns="http://www.w3.org/2000/svg" fill="none" viewBox="0 0 24 24">
  <path fill="#000" fill-rule="evenodd" d="M4.35 6.9c0-1.186.964-2.15 2.15-2.15h11c1.186 0 2.15.964 2.15 2.15v9.35H4.35V6.9Zm-1.5 9.45V6.9A3.652 3.652 0 0 1 6.5 3.25h11a3.652 3.652 0 0 1 3.65 3.65v9.45c.912.29 1.6 1.16 1.6 2.15 0 1.214-1.036 2.25-2.25 2.25h-17c-1.214 0-2.25-1.036-2.25-2.25 0-.99.688-1.86 1.6-2.15Zm.65 1.4c-.386 0-.75.364-.75.75s.364.75.75.75h17c.386 0 .75-.364.75-.75s-.364-.75-.75-.75h-17Zm9.77-9.28a.75.75 0 0 1 1.06 0l1.4 1.4c.27.27.445.63.445 1.03s-.174.76-.445 1.03l-1.4 1.4a.75.75 0 1 1-1.06-1.06l1.37-1.37-1.37-1.37a.75.75 0 0 1 0-1.06Zm-2.64 1.16a.75.75 0 1 0-1.06-1.06l-1.4 1.4c-.27.27-.445.63-.445 1.03s.174.76.445 1.03l1.4 1.4a.75.75 0 1 0 1.06-1.06L9.26 11l1.37-1.37Z" clip-rule="evenodd"/>
</svg>
